;FLAVOR:Marlin
;TIME:1322
;Filament used: 0.955016m
;Layer height: 0.15
;MINX:103.9
;MINY:83.9
;MINZ:0.2
;MAXX:146.1
;MAXY:126.1
;MAXZ:6.05
;Generated with Cura_SteamEngine main
M82 ;absolute extrusion mode
G21 ; set units to millimeters
G90 ; use absolute positioning
M82 ; absolute extrusion mode
M104 S200 ; set extruder temp
M140 S60 ; set bed temp
M190 S60 ; wait for bed temp
M109 S200 ; wait for extruder temp
G28 W ; home all without mesh bed level
G80 ; mesh bed leveling
G92 E0.0 ; reset extruder distance position
G1 Y-3.0 F1000.0 ; go outside print area
G1 X60.0 E9.0 F1000.0 ; intro line
G1 X100.0 E21.5 F1000.0 ; intro line
G92 E0.0 ; reset extruder distance position
G92 E0
G92 E0
G1 F2100 E-0.8
;LAYER_COUNT:40
;LAYER:0
M107
G0 F3600 X105.544 Y86.137 Z0.2
G0 X103.9 Y91.208
;TYPE:SKIRT
G1 F2100 E0
G1 F1800 X103.917 Y90.302 E0.03014
G1 X103.967 Y89.607 E0.05331
G1 X104.141 Y88.807 E0.08054
G1 X104.396 Y87.988 E0.10907
G1 X104.772 Y87.251 E0.13659
G1 X105.041 Y86.815 E0.15363
G1 X105.544 Y86.137 E0.18171
G1 X106.137 Y85.564 E0.20914
G1 X106.878 Y85 E0.24011
G1 X107.305 Y84.739 E0.25676
G1 X107.868 Y84.46 E0.27765
G1 X108.733 Y84.157 E0.30814
G1 X109.226 Y84.038 E0.32501
G1 X109.869 Y83.943 E0.34662
G1 X110.639 Y83.905 E0.37227
G1 X138.792 Y83.9 E1.30864
G1 X139.697 Y83.917 E1.33874
G1 X140.391 Y83.967 E1.36189
G1 X141.198 Y84.143 E1.38936
G1 X142.012 Y84.396 E1.41771
G1 X142.942 Y84.87 E1.45243
G1 X143.577 Y85.33 E1.47851
G1 X143.969 Y85.662 E1.49559
G1 X144.558 Y86.259 E1.52349
G1 X144.999 Y86.878 E1.54877
G1 X145.261 Y87.307 E1.56548
G1 X145.54 Y87.868 E1.58632
G1 X145.843 Y88.73 E1.61671
G1 X145.962 Y89.221 E1.63352
G1 X146.057 Y89.868 E1.65527
G1 X146.095 Y90.639 E1.68094
G1 X146.1 Y118.792 E2.61731
G1 X146.083 Y119.697 E2.64742
G1 X146.033 Y120.394 E2.67066
G1 X145.859 Y121.193 E2.69786
G1 X145.604 Y122.01 E2.72633
G1 X145.132 Y122.939 E2.76098
G1 X144.673 Y123.574 E2.78704
G1 X144.34 Y123.968 E2.8042
G1 X143.739 Y124.562 E2.83231
G1 X143.11 Y125.008 E2.85795
G1 X142.677 Y125.27 E2.87479
G1 X142.132 Y125.54 E2.89502
G1 X141.267 Y125.843 E2.9255
G1 X140.774 Y125.962 E2.94237
G1 X140.131 Y126.057 E2.96399
G1 X139.361 Y126.095 E2.98963
G1 X111.208 Y126.1 E3.926
G1 X110.303 Y126.083 E3.95611
G1 X109.609 Y126.033 E3.97925
G1 X108.802 Y125.857 E4.00672
G1 X107.985 Y125.602 E4.03519
G1 X107.257 Y125.231 E4.06236
G1 X106.821 Y124.963 E4.07938
G1 X106.139 Y124.458 E4.10761
G1 X105.428 Y123.722 E4.14165
G1 X104.997 Y123.117 E4.16635
G1 X104.733 Y122.683 E4.18325
G1 X104.456 Y122.123 E4.20403
G1 X104.155 Y121.262 E4.23436
G1 X104.037 Y120.773 E4.2511
G1 X103.943 Y120.131 E4.27268
G1 X103.905 Y119.361 E4.29832
G1 X103.9 Y91.208 E5.23469
G0 F3600 X104.3 Y91.208
G1 F1800 X104.317 Y90.31 E5.26456
G1 X104.363 Y89.669 E5.28594
G1 X104.532 Y88.892 E5.31238
G1 X104.767 Y88.139 E5.33862
G1 X105.113 Y87.461 E5.36394
G1 X105.382 Y87.025 E5.38098
G1 X105.845 Y86.4 E5.40685
G1 X106.391 Y85.874 E5.43206
G1 X107.087 Y85.342 E5.4612
G1 X107.514 Y85.081 E5.47785
G1 X108.014 Y84.832 E5.49642
G1 X108.827 Y84.545 E5.5251
G1 X109.32 Y84.426 E5.54197
G1 X109.891 Y84.342 E5.56116
G1 X110.639 Y84.305 E5.58607
G1 X138.792 Y84.3 E6.52245
G1 X139.689 Y84.317 E6.55229
G1 X140.337 Y84.364 E6.57389
G1 X141.113 Y84.533 E6.60031
G1 X141.861 Y84.767 E6.62638
G1 X142.531 Y85.108 E6.65138
G1 X143.318 Y85.635 E6.68288
G1 X143.71 Y85.967 E6.69997
G1 X144.109 Y86.371 E6.71886
G1 X144.658 Y87.086 E6.74884
G1 X144.92 Y87.515 E6.76556
G1 X145.168 Y88.014 E6.78409
G1 X145.454 Y88.824 E6.81266
G1 X145.573 Y89.315 E6.82946
G1 X145.658 Y89.89 E6.8488
G1 X145.695 Y90.639 E6.87374
G1 X145.7 Y118.792 E7.81011
G1 X145.683 Y119.689 E7.83995
G1 X145.636 Y120.333 E7.86143
G1 X145.468 Y121.108 E7.8878
G1 X145.235 Y121.857 E7.91389
G1 X144.892 Y122.531 E7.93905
G1 X144.367 Y123.316 E7.97046
G1 X144.034 Y123.71 E7.98761
G1 X143.627 Y124.112 E8.00664
G1 X142.903 Y124.666 E8.03696
G1 X142.47 Y124.928 E8.0538
G1 X141.986 Y125.167 E8.07175
G1 X141.173 Y125.455 E8.10044
G1 X140.68 Y125.574 E8.1173
G1 X140.109 Y125.658 E8.1365
G1 X139.361 Y125.695 E8.16141
G1 X111.208 Y125.7 E9.09778
G1 X110.311 Y125.683 E9.12762
G1 X109.663 Y125.636 E9.14923
G1 X108.887 Y125.467 E9.17565
G1 X108.136 Y125.232 E9.20182
G1 X107.466 Y124.89 E9.22684
G1 X107.03 Y124.622 E9.24386
G1 X106.402 Y124.157 E9.26985
G1 X105.878 Y123.614 E9.29495
G1 X105.339 Y122.909 E9.32446
G1 X105.075 Y122.475 E9.34136
G1 X104.829 Y121.977 E9.35983
G1 X104.544 Y121.169 E9.38833
G1 X104.426 Y120.68 E9.40506
G1 X104.342 Y120.109 E9.42426
G1 X104.305 Y119.361 E9.44917
G1 X104.3 Y91.208 E10.38554
G1 F2100 E9.58554
;MESH:box (1).STL
G0 F3600 X106.835 Y91.208
G0 X107.92 Y91.208
G0 X108.429 Y90.166
G1 F2100 E10.38554
G0 F3600 X108.132 Y90.129
;TYPE:WALL-INNER
G1 F1800 X108.1 Y90.525 E10.39875
G1 X108.1 Y119.475 E11.36163
G1 X108.132 Y119.872 E11.37488
G1 X108.218 Y120.229 E11.38709
G1 X108.363 Y120.588 E11.39997
G1 X108.559 Y120.908 E11.41245
G1 X108.803 Y121.195 E11.42498
G1 X109.091 Y121.44 E11.43756
G1 X109.408 Y121.635 E11.44994
G1 X109.778 Y121.784 E11.4632
G1 X110.128 Y121.868 E11.47518
G1 X110.525 Y121.9 E11.48842
G1 X139.475 Y121.9 E12.4513
G1 X139.871 Y121.868 E12.46452
G1 X140.229 Y121.782 E12.47676
G1 X140.592 Y121.635 E12.48979
G1 X140.91 Y121.44 E12.5022
G1 X141.197 Y121.195 E12.51475
G1 X141.441 Y120.908 E12.52728
G1 X141.636 Y120.589 E12.53971
G1 X141.784 Y120.222 E12.55287
G1 X141.868 Y119.871 E12.56488
G1 X141.9 Y119.475 E12.57809
G1 X141.9 Y90.624 E13.53768
G1 X141.868 Y90.125 E13.55431
G1 X141.783 Y89.772 E13.56639
G1 X141.635 Y89.408 E13.57946
G1 X141.44 Y89.09 E13.59186
G1 X141.195 Y88.803 E13.60441
G1 X140.91 Y88.56 E13.61687
G1 X140.589 Y88.363 E13.6294
G1 X140.222 Y88.216 E13.64255
G1 X139.871 Y88.132 E13.65455
G1 X139.475 Y88.1 E13.66776
G1 X110.525 Y88.1 E14.63064
G1 X110.129 Y88.132 E14.64386
G1 X109.771 Y88.217 E14.6561
G1 X109.408 Y88.365 E14.66914
G1 X109.09 Y88.56 E14.68154
G1 X108.803 Y88.805 E14.69409
G1 X108.559 Y89.092 E14.70662
G1 X108.364 Y89.411 E14.71906
G1 X108.216 Y89.778 E14.73222
G1 X108.132 Y90.129 E14.74422
G0 F3600 X108.429 Y90.166
G0 X112.513 Y95.439
G0 X112.806 Y95.39
G1 F1800 X112.745 Y94.965 E14.7585
G1 X112.79 Y94.409 E14.77706
G1 X112.841 Y94.213 E14.78379
G1 X113.092 Y93.659 E14.80402
G1 X113.512 Y93.22 E14.82423
G1 X113.675 Y93.099 E14.83098
G1 X114.225 Y92.822 E14.85146
G1 X114.945 Y92.737 E14.87558
G1 X115.526 Y92.862 E14.89534
G1 X115.715 Y92.938 E14.90212
G1 X116.233 Y93.258 E14.92237
G1 X116.685 Y93.815 E14.94623
G1 X116.915 Y94.487 E14.96985
G1 X116.918 Y95.193 E14.99333
G1 X116.694 Y95.826 E15.01567
G1 X116.616 Y95.95 E15.02054
G1 X116.234 Y96.419 E15.04066
G1 X115.633 Y96.793 E15.0642
G1 X114.909 Y96.945 E15.08881
G1 X114.224 Y96.858 E15.11177
G1 X113.584 Y96.535 E15.13562
G1 X113.163 Y96.095 E15.15587
G1 X113.05 Y95.928 E15.16258
G1 X112.806 Y95.39 E15.18223
G0 F3600 X112.513 Y95.439
G0 X112.513 Y115.759
G0 X112.806 Y115.71
G1 F1800 X112.745 Y115.285 E15.19651
G1 X112.79 Y114.729 E15.21506
G1 X112.841 Y114.533 E15.22179
G1 X113.092 Y113.979 E15.24202
G1 X113.584 Y113.465 E15.26569
G1 X114.224 Y113.142 E15.28953
G1 X114.93 Y113.053 E15.3132
G1 X115.635 Y113.208 E15.33721
G1 X116.237 Y113.583 E15.3608
G1 X116.677 Y114.127 E15.38407
G1 X116.913 Y114.787 E15.40738
G1 X116.915 Y115.514 E15.43156
G1 X116.684 Y116.186 E15.4552
G1 X116.233 Y116.742 E15.47901
G1 X115.715 Y117.062 E15.49926
G1 X115.526 Y117.138 E15.50604
G1 X114.945 Y117.263 E15.5258
G1 X114.326 Y117.191 E15.54653
G1 X114.131 Y117.131 E15.55331
G1 X113.584 Y116.855 E15.57369
G1 X113.092 Y116.341 E15.59736
G1 X112.806 Y115.71 E15.6204
G0 F3600 X112.513 Y115.759
G0 X112.892 Y116.477
G0 X114.152 Y117.408
G0 X132.848 Y114.501
G0 X133.119 Y114.624
G1 F1800 X133.412 Y113.983 E15.64384
G1 X133.909 Y113.464 E15.66774
G1 X134.549 Y113.141 E15.69159
G1 X135.232 Y113.055 E15.71448
G1 X135.946 Y113.203 E15.73873
G1 X136.553 Y113.578 E15.76246
G1 X136.936 Y114.05 E15.78268
G1 X137.036 Y114.229 E15.7895
G1 X137.238 Y114.803 E15.80974
G1 X137.238 Y115.414 E15.83006
G1 X137.23 Y115.518 E15.83353
G1 X137.204 Y115.614 E15.83684
G1 X137.001 Y116.191 E15.85718
G1 X136.547 Y116.745 E15.88101
G1 X136.035 Y117.062 E15.90104
G1 X135.846 Y117.138 E15.90781
G1 X135.265 Y117.263 E15.92758
G1 X134.547 Y117.18 E15.95162
G1 X133.995 Y116.901 E15.97219
G1 X133.832 Y116.78 E15.97894
G1 X133.413 Y116.342 E15.9991
G1 X133.137 Y115.735 E16.02128
G1 X133.065 Y115.306 E16.03575
G1 X133.119 Y114.624 E16.0585
G0 F3600 X132.848 Y114.501
G0 X132.822 Y94.282
G0 X133.118 Y94.308
G1 F1800 X133.413 Y93.658 E16.08224
G1 X133.832 Y93.22 E16.1024
G1 X133.995 Y93.099 E16.10915
G1 X134.545 Y92.822 E16.12964
G1 X135.265 Y92.737 E16.15375
G1 X135.846 Y92.862 E16.17352
G1 X136.035 Y92.938 E16.18029
G1 X136.547 Y93.255 E16.20032
G1 X136.936 Y93.73 E16.22074
G1 X137.036 Y93.909 E16.22756
G1 X137.238 Y94.483 E16.2478
G1 X137.238 Y95.198 E16.27158
G1 X137.036 Y95.771 E16.29179
G1 X136.936 Y95.95 E16.29861
G1 X136.553 Y96.422 E16.31883
G1 X135.946 Y96.797 E16.34256
G1 X135.232 Y96.945 E16.36681
G1 X134.549 Y96.859 E16.3897
G1 X133.9 Y96.532 E16.41388
G1 X133.419 Y96.025 E16.43712
G1 X133.139 Y95.411 E16.45957
G1 X133.065 Y94.989 E16.47382
G1 X133.118 Y94.308 E16.49653
G0 F3600 X133.513 Y94.412
;TYPE:WALL-OUTER
G1 F1800 X133.748 Y93.887 E16.51566
G1 X134.144 Y93.471 E16.53477
G1 X134.663 Y93.21 E16.55409
G1 X135.222 Y93.142 E16.57282
G1 X135.796 Y93.26 E16.59231
G1 X136.286 Y93.563 E16.61147
G1 X136.647 Y94.008 E16.63053
G1 X136.838 Y94.551 E16.64967
G1 X136.836 Y95.129 E16.6689
G1 X136.647 Y95.672 E16.68802
G1 X136.283 Y96.116 E16.70712
G1 X135.792 Y96.418 E16.72629
G1 X135.24 Y96.538 E16.74508
G1 X134.662 Y96.469 E16.76444
G1 X134.144 Y96.208 E16.78373
G1 X133.748 Y95.792 E16.80283
G1 X133.518 Y95.283 E16.82141
G1 X133.465 Y94.947 E16.83273
G1 X133.513 Y94.412 E16.85059
G0 F3600 X133.594 Y94.23
G0 X132.957 Y93.941
G0 X132.847 Y94.799
G0 X133.245 Y113.721
G0 X133.749 Y114.205
G1 F1800 X134.147 Y113.791 E16.86969
G1 X134.662 Y113.531 E16.88888
G1 X135.24 Y113.462 E16.90824
G1 X135.792 Y113.582 E16.92703
G1 X136.283 Y113.884 E16.9462
G1 X136.647 Y114.327 E16.96527
G1 X136.838 Y114.871 E16.98445
G1 X136.836 Y115.449 E17.00367
G1 X136.647 Y115.992 E17.0228
G1 X136.286 Y116.437 E17.04185
G1 X135.797 Y116.74 E17.06099
G1 X135.232 Y116.861 E17.08021
G1 X134.662 Y116.79 E17.09931
G1 X134.145 Y116.529 E17.11857
G1 X133.748 Y116.114 E17.13767
G1 X133.513 Y115.597 E17.15656
G1 X133.465 Y115.268 E17.16762
G1 X133.511 Y114.732 E17.18551
G1 X133.749 Y114.205 E17.20475
G0 F3600 X133.887 Y114.061
G0 X133.383 Y113.577
G0 X114.939 Y112.811
G0 X113.443 Y113.269
G0 X112.496 Y114.669
G0 X113.191 Y114.729
G1 F1800 X113.428 Y114.206 E17.22385
G1 X113.825 Y113.791 E17.24295
G1 X114.343 Y113.53 E17.26224
G1 X114.917 Y113.462 E17.28146
G1 X115.476 Y113.58 E17.30047
G1 X115.968 Y113.885 E17.31972
G1 X116.329 Y114.334 E17.33888
G1 X116.517 Y114.879 E17.35806
G1 X116.514 Y115.457 E17.37728
G1 X116.326 Y115.988 E17.39602
G1 X115.966 Y116.437 E17.41516
G1 X115.477 Y116.74 E17.43429
G1 X114.912 Y116.861 E17.45351
G1 X114.376 Y116.794 E17.47148
G1 X114.311 Y116.774 E17.47374
G1 X113.825 Y116.529 E17.49184
G1 X113.428 Y116.114 E17.51094
G1 X113.205 Y115.622 E17.52891
G1 X113.143 Y115.296 E17.53994
G1 X113.191 Y114.729 E17.55887
G0 F3600 X113.273 Y114.547
G0 X112.638 Y114.259
G0 X112.496 Y94.349
G0 X113.191 Y94.409
G1 F1800 X113.428 Y93.886 E17.57797
G1 X113.825 Y93.471 E17.59707
G1 X114.343 Y93.21 E17.61636
G1 X114.902 Y93.142 E17.63509
G1 X115.476 Y93.26 E17.65458
G1 X115.966 Y93.563 E17.67374
G1 X116.326 Y94.012 E17.69289
G1 X116.514 Y94.543 E17.71162
G1 X116.515 Y95.131 E17.73118
G1 X116.332 Y95.656 E17.74967
G1 X116.306 Y95.698 E17.75131
G1 X115.967 Y96.112 E17.76911
G1 X115.477 Y96.42 E17.78836
G1 X114.917 Y96.538 E17.80739
G1 X114.343 Y96.47 E17.82662
G1 X113.825 Y96.209 E17.84591
G1 X113.428 Y95.794 E17.86501
G1 X113.205 Y95.302 E17.88298
G1 X113.143 Y94.976 E17.89402
G1 X113.191 Y94.409 E17.91294
G0 F3600 X113.273 Y94.227
G0 X112.638 Y93.939
G0 X108.429 Y90.166
G0 X107.736 Y90.066
G1 F1800 X107.7 Y90.509 E17.92772
G1 X107.7 Y119.491 E18.89167
G1 X107.736 Y119.934 E18.90645
G1 X107.836 Y120.351 E18.92072
G1 X108.005 Y120.769 E18.93571
G1 X108.234 Y121.144 E18.95033
G1 X108.519 Y121.479 E18.96495
G1 X108.855 Y121.764 E18.97961
G1 X109.227 Y121.993 E18.99414
G1 X109.656 Y122.166 E19.00952
G1 X110.066 Y122.264 E19.02354
G1 X110.509 Y122.3 E19.03833
G1 X139.491 Y122.3 E20.00227
G1 X139.934 Y122.264 E20.01705
G1 X140.351 Y122.164 E20.03132
G1 X140.773 Y121.993 E20.04646
G1 X141.146 Y121.764 E20.06102
G1 X141.481 Y121.479 E20.07565
G1 X141.766 Y121.144 E20.09028
G1 X141.995 Y120.769 E20.10489
G1 X142.166 Y120.344 E20.12013
G1 X142.264 Y119.934 E20.13415
G1 X142.3 Y119.491 E20.14893
G1 X142.3 Y90.624 E21.10905
G1 X142.264 Y90.062 E21.12778
G1 X142.165 Y89.649 E21.14191
G1 X141.993 Y89.227 E21.15706
G1 X141.764 Y88.854 E21.17162
G1 X141.479 Y88.519 E21.18625
G1 X141.146 Y88.236 E21.20079
G1 X140.769 Y88.005 E21.21549
G1 X140.344 Y87.834 E21.23073
G1 X139.934 Y87.736 E21.24475
G1 X139.491 Y87.7 E21.25953
G1 X110.509 Y87.7 E22.22348
G1 X110.066 Y87.736 E22.23826
G1 X109.649 Y87.835 E22.25252
G1 X109.227 Y88.007 E22.26767
G1 X108.854 Y88.236 E22.28223
G1 X108.519 Y88.521 E22.29686
G1 X108.234 Y88.856 E22.31149
G1 X108.005 Y89.231 E22.3261
G1 X107.834 Y89.656 E22.34134
G1 X107.736 Y90.066 E22.35536
G0 F3600 X107.72 Y90.265
G0 X108.417 Y90.32
G0 X108.707 Y89.578
;TYPE:SKIN
G1 F1800 X108.508 Y90.199 E22.37705
G1 X108.48 Y90.542 E22.38849
G1 X108.48 Y119.458 E23.35024
G1 X108.509 Y119.801 E23.36169
G1 X108.706 Y120.421 E23.38333
G1 X109.071 Y120.924 E23.404
G1 X109.572 Y121.29 E23.42464
G1 X110.2 Y121.492 E23.44658
G1 X110.542 Y121.52 E23.45799
G1 X139.458 Y121.52 E24.41974
G1 X139.8 Y121.491 E24.43116
G1 X140.427 Y121.29 E24.45306
G1 X140.929 Y120.925 E24.4737
G1 X141.293 Y120.422 E24.49435
G1 X141.492 Y119.801 E24.51604
G1 X141.52 Y119.458 E24.52749
G1 X141.52 Y90.625 E25.48648
G1 X141.491 Y90.185 E25.50114
G1 X141.294 Y89.579 E25.52234
G1 X140.925 Y89.072 E25.54319
G1 X140.423 Y88.708 E25.56382
G1 X139.801 Y88.508 E25.58555
G1 X139.46 Y88.48 E25.59693
G1 X110.542 Y88.48 E26.55874
G1 X110.2 Y88.508 E26.57016
G1 X109.573 Y88.71 E26.59207
G1 X109.071 Y89.075 E26.61271
G1 X108.707 Y89.578 E26.63336
G0 F3600 X112.416 Y94.34
G1 F1800 X112.494 Y94.056 E26.64316
G1 X112.702 Y93.596 E26.65995
G1 X112.888 Y93.32 E26.67102
G1 X113.258 Y92.939 E26.68868
G1 X113.501 Y92.761 E26.6987
G1 X114.11 Y92.453 E26.7214
G1 X114.878 Y92.356 E26.74715
G1 X115.584 Y92.485 E26.77102
G1 X115.915 Y92.615 E26.78284
G1 X116.373 Y92.9 E26.80079
G1 X116.594 Y93.098 E26.81065
G1 X117.014 Y93.62 E26.83294
G1 X117.292 Y94.405 E26.86064
G1 X117.298 Y95.254 E26.88888
G1 X117.012 Y96.063 E26.91741
G1 X116.49 Y96.708 E26.94501
G1 X115.762 Y97.159 E26.9735
G1 X114.954 Y97.328 E27.00095
G1 X114.109 Y97.226 E27.02926
G1 X113.346 Y96.84 E27.0577
G1 X112.867 Y96.333 E27.0809
G1 X112.702 Y96.084 E27.09083
G1 X112.436 Y95.495 E27.11233
G1 X112.366 Y94.995 E27.12912
G1 X112.416 Y94.34 E27.15097
G0 F3600 X112.494 Y114.376
G1 F1800 X112.702 Y113.916 E27.16776
G1 X112.867 Y113.667 E27.1777
G1 X113.35 Y113.155 E27.20111
G1 X114.114 Y112.774 E27.2295
G1 X114.955 Y112.672 E27.25768
G1 X115.759 Y112.841 E27.285
G1 X116.495 Y113.296 E27.31378
G1 X117.009 Y113.942 E27.34124
G1 X117.028 Y113.979 E27.34263
G1 X117.298 Y114.755 E27.36995
G1 X117.295 Y115.577 E27.39729
G1 X117.019 Y116.38 E27.42553
G1 X116.594 Y116.902 E27.44792
G1 X116.346 Y117.12 E27.45891
G1 X115.886 Y117.4 E27.47682
G1 X115.639 Y117.501 E27.48569
G1 X114.966 Y117.647 E27.5086
G1 X114.244 Y117.561 E27.53278
G1 X113.993 Y117.484 E27.54151
G1 X113.501 Y117.239 E27.55979
G1 X113.233 Y117.039 E27.57092
G1 X112.888 Y116.68 E27.58748
G1 X112.702 Y116.404 E27.59855
G1 X112.448 Y115.841 E27.61909
G1 X112.366 Y115.315 E27.63679
G1 X112.416 Y114.66 E27.65864
G1 X112.494 Y114.376 E27.66844
G0 F3600 X113.443 Y113.269
G0 X114.86 Y112.822
G0 X132.679 Y115.293
